public/assets/icons/status_engaged.svg

<?xml version="1.0" standalone="no"?>
<!DOCTYPE svg PUBLIC "-//W3C//DTD SVG 1.1//EN" "http://www.w3.org/Graphics/SVG/1.1/DTD/svg11.dtd" >
<svg xmlns="http://www.w3.org/2000/svg" xmlns:xlink="http://www.w3.org/1999/xlink" version="1.1" viewBox="0 -64 1024 1024" width="512" height="512">
  <g transform="matrix(1 0 0 -1 0 960)">
   <path fill="currentColor"
d="M829 814l-180 -181v88h-69v-205h205v68h-88l180 181l-48 49v0zM331 677l-48 -48l410 -410l48 48zM239 380v-69h88l-180 -180l48 -48l180 180v-88h69v205h-205v0z" />
  </g>

</svg>

<?xml version="1.0" encoding="UTF-8" standalone="no"?>
<svg
   version="1.1"
   viewBox="0 -64 1024 1024"
   width="512"
   height="512"
   id="svg523"
   sodipodi:docname="status_engaged.svg"
   inkscape:version="1.2.2 (732a01da63, 2022-12-09)"
   xmlns:inkscape="http://www.inkscape.org/namespaces/inkscape"
   xmlns:sodipodi="http://sodipodi.sourceforge.net/DTD/sodipodi-0.dtd"
   xmlns="http://www.w3.org/2000/svg"
   xmlns:svg="http://www.w3.org/2000/svg">
  <defs
     id="defs527" />
  <sodipodi:namedview
     id="namedview525"
     pagecolor="#ffffff"
     bordercolor="#000000"
     borderopacity="0.25"
     inkscape:showpageshadow="2"
     inkscape:pageopacity="0.0"
     inkscape:pagecheckerboard="0"
     inkscape:deskcolor="#d1d1d1"
     showgrid="false"
     inkscape:zoom="1.6191406"
     inkscape:cx="236.23643"
     inkscape:cy="256.30881"
     inkscape:window-width="1920"
     inkscape:window-height="1009"
     inkscape:window-x="-8"
     inkscape:window-y="-8"
     inkscape:window-maximized="1"
     inkscape:current-layer="svg523" />
  <g
     transform="matrix(1,0,0,-1,0,896.5)"
     id="g521">
    <path
       fill="currentColor"
       d="M 829,814 649,633 v 88 H 580 V 516 h 205 v 68 h -88 l 180,181 -48,49 z M 331,677 283,629 693,219 741,267 Z M 239,380 v -69 h 88 L 147,131 195,83 375,263 v -88 h 69 V 380 H 239 Z"
       id="path519" />
  </g>
</svg>
